!!!COM: Sergey (Sergeyevich) Prokofiev
!!!OTL: [T578_Pro-w24p42h30m1-9]
**kern	**dynam	**kern	**dynam	**kern	**dynam	**kern	**dynam
*grp:A	*grp:A	*grp:A	*grp:A	*grp:B	*grp:B	*grp:B	*grp:B
*part4	*part4	*part3	*part3	*part2	*part2	*part1	*part1
*staff4	*staff4	*staff3	*staff3	*staff2	*staff2	*staff1	*staff1
*I"Violoncello	*I"Violoncello	*I"Viola	*I"Viola	*I"Violin II	*I"Violin II	*I"Violin I	*I"Violin I
*I'Vc.	*	*I'Vla.	*	*I'Vln. II	*	*I'Vln. I	*
*clefF4	*	*clefC3	*	*clefG2	*	*clefG2	*
*k[f#c#g#]	*	*k[f#c#g#]	*	*k[f#c#g#]	*	*k[f#c#g#]	*
*A:	*	*A:	*	*A:	*	*A:	*
*M9/8	*	*M9/8	*	*M9/8	*	*M9/8	*
=1	=1	=1	=1	=1	=1	=1	=1
!	!	!	!	!	!	!LO:TX:t=[[quarter-dot]=40]	!LO:DY:t=%s dolce
(4Av	pp	4.r	.	8ryy	4ryy	4ryy	4ryy
.	.	.	.	8ryy	.	.	.
8C#)	.	.	.	8ryy	.	8ryy	.
2.FF#	.	4.r	.	8ryy	.	8ryy	.
.	.	.	.	8ryy	.	8ryy	.
.	.	.	.	8ryy	.	8ryy	.
.	.	8cc#~vL	pp	4.ryy	.	8ryy	.
.	.	(8a	.	.	.	4ryy	.
.	.	8cc#J)	.	.	.	.	.
=2	=2	=2	=2	=2	=2	=2	=2
8E~vL	.	(8aL	.	8%9ryy	.	8ryy	.
(8A	.	8e	.	.	.	8ryy	.
8EJ)	.	8aJ	.	.	.	8ryy	.
(8C#L	.	8eL)	.	.	.	8ryy	.
!	!	!	!	!	!	!LO:TX:a:t=II	!
8E)	.	(8c#	.	.	.	4ryy	.
8C#~J	.	8eJ)	.	.	.	.	.
(8GG#L	.	(8c#L	.	.	.	4ryy	.
8C#	.	8G#	.	.	.	.	.
8GG#J)	.	8c#J)	.	.	.	8ryy	.
=3	=3	=3	=3	=3	=3	=3	=3
[2.CC#	.	[2.E	.	8ryy	4ryy	8ryy	.
!	!	!	!	!	!	!LO:N:	!
.	.	.	.	8ryy	.	8ryy	.
.	.	.	.	8ryy	.	8ryy	.
.	.	.	.	8ryy	.	8ryy	.
.	.	.	.	8ryy	.	8ryy	.
.	.	.	.	8ryy	.	8ryy	.
4.CC#]	.	4.E]	.	8ryy	.	8ryy	.
.	.	.	.	8ryy	.	4ryy	.
.	.	.	.	8ryy	.	.	.
=4	=4	=4	=4	=4	=4	=4	=4
(4DD	.	2.c#	.	4.ryy	.	8ryy	.
.	.	.	.	.	.	4ryy	.
8FF#)	.	.	.	.	.	.	.
(8AAL	.	.	.	4.ryy	.	8ryy	.
8F#	.	.	.	.	.	8ryy	.
8A#XJ)	.	.	.	.	.	8ryy	.
(4d	.	[4.d	.	4.ryy	.	4.ryy	.
8c#)	.	.	.	.	.	.	.
=5	=5	=5	=5	=5	=5	=5	=5
(8BL	p	8dL]	.	8ryy	.	8%9ryy	.
!	!	!	!	! 	!LO:DY:t=%s espress.	!	!
8E)	.	(8A#X	p	8ryy	4ryy	.	.
[8GGnJ	.	8BJ)	.	8ryy	.	.	.
8GGL]	.	(4c#	.	8ryy	.	.	.
(8E	.	.	.	4ryy	.	.	.
[8BJ	.	8d)	.	.	.	.	.
8BL])	.	(8eL	.	4ryy	.	.	.
(8E-X	.	8f#	.	.	.	.	.
8DJ)	.	8gnJ)	.	8ryy	.	.	.
=6	=6	=6	=6	=6	=6	=6	=6
(8AAL	.	(8g#X	.	8ryy	4ryy	8ryy	4ryy
8C#)	.	4a)	.	4ryy	.	8ryy	.
[8FF#J	<	.	.	.	.	8ryy	.
4.FF#]	.	(8F#L	<	8ryy	.	8ryy	.
.	.	8A)	.	4ryy	.	8ryy	.
.	.	([8DJ	[	.	.	8ryy	.
(8GGnL	[ >	(8DL]	>	4.ryy	4ryy	8ryy	4ryy
8BB	.	8Gn	.	.	.	8.ryy	.
8BBnJ)	]	8dJ))	]	.	.	.	.
.	.	.	.	.	.	16ryy	4ryy
=7	=7	=7	=7	=7	=7	=7	=7
(8BBB#X	p	(4b	p	8ryy	.	4ryy	4ryy
4CC#)	.	.	.	8ryy	4ryy	.	.
.	.	8g#X)	.	8ryy	.	8ryy	.
(4C#	.	(4a	.	8ryy	.	4ryy	.
.	.	.	.	8ryy	.	.	.
8GG#)	.	8f#)	.	8ryy	.	8ryy	.
(4EE	.	(8g#	.	8ryy	.	8ryy	.
.	.	4gn)	.	8ryy	.	4ryy	.
8CC#)	.	.	.	8ryy	.	.	.
=8	=8	=8	=8	=8	=8	=8	=8
(8DD^L	.	4.f#	.	2.ryy	.	4ryy	.
8FF#	.	.	.	.	.	.	.
!	!	!	!	!	!	!	!LO:DY:t=%s espress.
8AAJ)	.	.	.	.	.	8ryy	4ryy
(8DL	<	(8DL	.	.	.	8ryy	.
8C#)	.	8E)	.	.	.	8ryy	.
[8BBJ	.	[8F#J	<	.	.	8ryy	.
8BBL]	.	8F#L]	.	4.ryy	4ryy	8ryy	4ryy
(8AA#X	.	(8c#	.	.	.	8ryy	.
8GG#J)	[	8g#J)	[	.	.	8ryy	4ryy
=9	=9	=9	=9	=9	=9	=9	=9
(8GGn^L	mf	(8b	mf	8ryy	4ryy	8ryy	4ryy
8BB	.	4a)	.	4ryy	.	8ryy	.
8DJ	.	.	.	.	.	8ryy	.
!	!	!	!	!	!	!LO:TX:a:B:t=pochiss. rit.	!
8EL)	>	(8a	>	8ryy	4ryy	8ryy	4ryy
(8G#X	.	4g#)	.	4ryy	.	8ryy	.
8BJ)	.	.	.	.	.	8ryy	.
(4c#	.	(8g#	.	8ryy	.	8ryy	.
.	.	4gn)	.	4ryy	.	8ryy	.
8e	]]	.	]]	.	4ryy	8ryy	4ryy
=	=	=	=	=	=	=	=
*-	*-	*-	*-	*-	*-	*-	*-
!!!system-decoration: [(s1,s2,s3,s4)]
!!!EED: Rafael Laurindo
!!!EEV: 2021/08/20
!!!EED2: Gabriella Vici
!!!EEV2: 2022/02/17
